app/dist/common/images/exponent.svg

<svg height="18" width="18" xmlns="http://www.w3.org/2000/svg"><path d="m0 0h18v18h-18z" fill="#00918d"/><g fill="#fff"><path d="m9 5.667h-5v.333h1v6.667h-1v.333h5v-2h-.33c0 1.252-.603 1.65-.92 1.667h-1.75v-2.667h1.125c.435 0 .64.647.625 1h.25v-3h-.25c0 .886-.459 1.04-.625 1h-1.125v-3h1.462c.851 0 1.221 1.502 1.259 2h.279z"/><path d="m14 5.478c0 .477-.55.458-.806.37-.378-.035-.911.883-1.15 1.352 0 1.552.439 2.063.658 2.063.176 0 .737-.837.932-1.266.131-.288.366-.18.366 0-.187.7-.954 1.958-1.7 2.004-.746.045-.944-1.18-.95-1.798-.396.549-1.262 1.571-1.5 1.646-.423.135-.572 0-.62-.036-.452-.344-.165-.948.237-.891.321.045.463.246.493.34l1.28-1.57c0-1.78-.231-2.1-.512-2.044-.13.026-.48.685-.693.963-.14.158-.39.464-.404.267-.018-.246.713-1.878 1.463-1.878.6 0 .883 1.033.95 1.537a4.561 4.561 0 0 1 1.15-1.413c.27-.222.806-.124.806.354z"/></g></svg>

<!-- by TradingView --><svg width="18" height="18" xmlns="http://www.w3.org/2000/svg"><path fill="#00918D" d="M0 0h18v18H0z"/><path d="M9 5.667H4V6h1v6.667H4V13h5v-2h-.33c0 1.252-.603 1.65-.92 1.667H6V10h1.125c.435 0 .64.647.625 1H8V8h-.25c0 .886-.459 1.04-.625 1H6V6h1.462c.851 0 1.221 1.502 1.259 2H9V5.667z" fill="#fff"/><path d="M14 5.478c0 .477-.55.458-.806.37-.378-.035-.911.883-1.15 1.352 0 1.552.439 2.063.658 2.063.176 0 .737-.837.932-1.266.131-.288.366-.18.366 0-.187.7-.954 1.958-1.7 2.004-.746.045-.944-1.18-.95-1.798-.396.549-1.262 1.571-1.5 1.646-.423.135-.572 0-.62-.036-.452-.344-.165-.948.237-.891.321.045.463.246.493.34l1.28-1.57c0-1.78-.231-2.1-.512-2.044-.13.026-.48.685-.693.963-.14.158-.39.464-.404.267C9.613 6.632 10.344 5 11.094 5c.6 0 .883 1.033.95 1.537a4.561 4.561 0 011.15-1.413c.27-.222.806-.124.806.354z" fill="#fff"/></svg>
